svg/Mapbox-maki/dog-park-18.svg

<svg xmlns="http://www.w3.org/2000/svg" viewBox="0 0 18 18"><path opacity=".3" fill="#fff" d="m13.90625 2.5a.50005 .50005 0 0 0 -.1875 .09375l-1.5 1a.50005 .50005 0 0 0 -.15625 .1875l-1 2A.50005 .50005 0 0 0 11 6 .50005 .50005 0 0 0 10.78125 6.0625L9.906 6.5H6.125L5.219 5.875 6.406 4.313A.50005 .50005 0 0 0 6 3.5h-1A.50005 .50005 0 0 0 4.59375 3.6875l-1.5 2A.50005 .50005 0 0 0 3.0625 6.21875l1 1.906-.375 1A.50005 .50005 0 0 0 3.65625 9.375L3.719 9.906 1.563 13.75A.50005 .50005 0 0 0 2 14.5h1A.50005 .50005 0 0 0 3.375 14.3125L4.688 12.719 4.5 13.906A.50005 .50005 0 0 0 5 14.5h1a.50005 .50005 0 0 0 .5 -.375l.875-3.5 2.5.688-.844 2.531A.50005 .50005 0 0 0 9.5 14.5h1.5a.50005 .50005 0 0 0 .46875 -.34375L11.844 13.06 12 14.09A.50005 .50005 0 0 0 12.5 14.5h1.5a.50005 .50005 0 0 0 .46875 -.65625L13.5 11V10.938 8.5A.50005 .50005 0 0 0 13.9375 8.21875L14.313 7.5H16.5a.50005 .50005 0 0 0 .4375 -.28125l.5-1A.50005 .50005 0 0 0 17.21875 5.5625l-2.5-1.25.688-1.031A.50005 .50005 0 0 0 15 2.5h-1a.50005 .50005 0 0 0 -.09375 0"/><g fill="#444"><path d="m12.5 4l1.5-1h1l-1 1.5 3 1.5-.5 1h-2.5l-.5 1-2-2z"/><path d="m13 8.5l-2-2-1 .5h-4l-1.5-1 1.5-2h-1l-1.5 2 1.125 2.125-.475 1.2.1.675-2.25 4h1l2.5-3-.5 3h1l1-4 3.5 1-1 3h1.5l1-3 .5 3h1.5l-1-3z"/></g></svg>

<?xml version="1.0" encoding="UTF-8" standalone="no"?>
<svg xmlns="http://www.w3.org/2000/svg" width="18" height="18">
  <path opacity="0.3" fill="#FFF" d="m 13.90625,2.5 a 0.50005,0.50005 0 0 0 -0.1875,0.09375 l -1.5,1 a 0.50005,0.50005 0 0 0 -0.15625,0.1875 l -1,2 A 0.50005,0.50005 0 0 0 11,6 0.50005,0.50005 0 0 0 10.78125,6.0625 L 9.90625,6.5 6.125,6.5 5.21875,5.875 6.40625,4.3125 A 0.50005,0.50005 0 0 0 6,3.5 l -1,0 A 0.50005,0.50005 0 0 0 4.59375,3.6875 l -1.5,2 A 0.50005,0.50005 0 0 0 3.0625,6.21875 l 1,1.90625 -0.375,1 A 0.50005,0.50005 0 0 0 3.65625,9.375 L 3.71875,9.90625 1.5625,13.75 A 0.50005,0.50005 0 0 0 2,14.5 l 1,0 A 0.50005,0.50005 0 0 0 3.375,14.3125 L 4.6875,12.71875 4.5,13.90625 A 0.50005,0.50005 0 0 0 5,14.5 l 1,0 a 0.50005,0.50005 0 0 0 0.5,-0.375 l 0.875,-3.5 2.5,0.6875 -0.84375,2.53125 A 0.50005,0.50005 0 0 0 9.5,14.5 l 1.5,0 a 0.50005,0.50005 0 0 0 0.46875,-0.34375 L 11.84375,13.0625 12,14.09375 A 0.50005,0.50005 0 0 0 12.5,14.5 l 1.5,0 a 0.50005,0.50005 0 0 0 0.46875,-0.65625 L 13.5,11 13.5,10.9375 13.5,8.5 A 0.50005,0.50005 0 0 0 13.9375,8.21875 L 14.3125,7.5 16.5,7.5 a 0.50005,0.50005 0 0 0 0.4375,-0.28125 l 0.5,-1 A 0.50005,0.50005 0 0 0 17.21875,5.5625 l -2.5,-1.25 0.6875,-1.03125 A 0.50005,0.50005 0 0 0 15,2.5 l -1,0 a 0.50005,0.50005 0 0 0 -0.09375,0 z"/>
  <path fill="#444444" d="M 12.5,4 14,3 15,3 14,4.5 17,6 16.5,7 14,7 13.5,8 11.5,6 z"/>
  <path fill="#444444" d="M 13,8.5 11,6.5 10,7 6,7 4.5,6 6,4 5,4 3.5,6 4.625,8.125 4.15,9.325 4.25,10 2,14 3,14 5.5,11 5,14 l 1,0 1,-4 3.5,1 -1,3 1.5,0 1,-3 0.5,3 1.5,0 -1,-3 z"/>
</svg>
